X:1

T:Whiskey Before Breakfast

L:1/8

M:C|

S:Jay Ungar

K:D

A,B,D(E D2) D(E|FA)BF A(FED)|G2 [GB]G F2 AF|EDE(F ED)B,G,|A,B,D(E D2 D(E|

FA)BF A(FED)|GAB(c dB)GB|AGF(E D4):|

|:B d2 (B d4)|(ef)ed c(B A2)|c e2 (c e2) (ef)|gfed c(B (3ABc)|d2 fd c2 ec|

BAB(c BA)FD|G2 BG F2 AF|EDE(F D4):|

 

WHISKEY, HEART OF SOULS. AKA and see "Oh, Whiskey, Heart of Souls."

 

WHISKY HORNPIPE, THE. AKA and see "Off to California [1]."

 


WHISKEY IN THE JAR [1]. AKA and see "Off/Going to California [1]," "Fireman's Reel," "Gypsy Hornpipe [4]," "Whiskey You're the Devil," "Possum Up a Gum Stump [1]," "Lexington," "Old Towser," "Buttermilk and Cider." Irish, Hornpipe. A Major. Standard tuning. AABB. Roche Collection, 1982, vol. 2; No. 217, pg. 12.

 

WHISKEY IN THE JAR/JUG. AKA and see “An Cailín Fionn,” "The Milestone [1]," "The Millstone," "The Old Locks and Quays of Galway," "The Connacht Reel [1]," "The New Domain/Demense," "The College Grove(s)," "The Green Jacket."

 

WHISKEY ISLAND. AKA and see "Church Street Polka."

 

WHISKEY JIG. AKA and see “Harbor Lights Jig,” "Marie's Family." Canadian, Jig. Canadal; Cape Breton, Prince Edward Island. G Major. Standard tuning. AABCC (Dunlay & Greenberg): AABB'CC (Dunlay & Reich): AA’BB’CC (Cranford, Perlman). The alternate names for the tune, “Harbor Lights” and “Marie’s Family,” are Cape Breton titles. Sources for notated versions: Donald Angus Beaton (Mabou, Cape Breton) [Dunlay & Greenberg, Dunlay & Reich]; fiddler Brenda Stubbert (b. 1959, Point Aconi, Cape Breton, Nova Scotia) [Cranford]; Stephen Toole (1927-1995, Green Road, Queens County, Prince Edward Island) [Perlman]. Cranford (Brenda Stubbert’s), 1994; No. 129, pg. 45. Dunlay & Greenberg Reich (Traditional Celtic Violin Music of Cape Breton), 1996; pg. 115. Dunlay & Reich (Traditional Celtic Fiddle Music of Cape Breton), 1986; pg. 76. Perlman (The Fiddle Music of Prince Edward Island), 1996; pg. 125. DAB4‑1985, Donald Angus Beaton‑ "A Musical Legacy" (1985) Rodeo Banff RBS 1066, Dan Joe MacInnis‑ "The Cape Breton Fiddle Of..." (appears as "Marie's Family"). Celtic CX 43, SCX 57, Johnny Wilmot‑ "The Fiddlers of Cape Breton" (various artists){appears as 2nd in "Cape Breton Favorite Jigs" medley}.

 

WHISKEY JOE. Old‑Time, Breakdown. USA, Northeast Tennessee. A northeast Tennesse title for this tune, which is related to "Big‑Eyed Rabbit.”

 

WHISKEY WALTZ. AKA and see “Black Velvet Waltz” [1].

 

WHISK(E)Y WELCOME BACK AGAIN. See "Welcome Whisky Back Again." Scottish, Strathspey. B Flat Major. Standard. AAB (Athole): AABB' (Kerr). This tune followed "Farewell to Whisky [1]" in Gow's collection. Kerr (Merry Melodies), Vol. 2; No. 206, pg. 23. Stewart-Robertson (The Athole Collection), 1884; pg. 291.

